svgs/regular/star-and-crescent.svg

<svg xmlns="http://www.w3.org/2000/svg" viewBox="0 0 512 512"><!-- Font Awesome Pro 6.0.0-alpha2 by @fontawesome - https://fontawesome.com License - https://fontawesome.com/license (Commercial License) --><path d="M340.502 466.375C339.002 466.375 333.627 466.875 331.252 466.875C215.001 466.875 120.501 372.25 120.501 256S215.001 45.125 331.252 45.125C333.627 45.125 339.002 45.625 340.502 45.625C347.627 45.625 353.752 40.625 355.252 33.625C356.627 26.375 352.627 19.125 345.752 16.5C316.627 5.5 286.377 0 256.002 0C114.876 0 0 114.875 0 256S114.876 512 256.002 512C286.252 512 316.252 506.5 345.377 495.625C351.252 493.625 355.627 488 355.627 481.375C355.627 473.375 349.252 466.375 340.502 466.375ZM48 256C48 185.875 82.876 123.625 136.251 86C96.626 131.5 72.5 191 72.5 256S96.626 380.5 136.251 426C82.876 388.375 48 326.125 48 256ZM503.503 213.875L427.128 202.75L392.877 133.5C391.127 129.875 387.502 128 384.002 128C380.502 128 376.877 129.875 375.002 133.5L340.877 202.75L264.502 213.875C256.377 215 253.127 225.125 259.002 230.875L314.252 284.75L301.252 360.75C300.127 367.25 305.252 372.5 311.002 372.5C312.502 372.5 314.127 372.125 315.627 371.25L384.002 335.375L452.253 371.25C453.878 372.125 455.378 372.5 457.003 372.5C462.753 372.5 467.878 367.25 466.753 360.75L453.753 284.75L509.003 230.875C514.878 225.125 511.628 215 503.503 213.875ZM420.253 250.375L402.128 268L406.378 292.875L384.002 281.125L361.627 292.875L365.877 268L347.752 250.375V250.25H347.877L372.752 246.625L384.002 224V223.875V224L395.252 246.625L420.128 250.25H420.253V250.375Z"/></svg>

<svg xmlns="http://www.w3.org/2000/svg" viewBox="0 0 512 512"><!-- Font Awesome Pro 5.15.1 by @fontawesome - https://fontawesome.com License - https://fontawesome.com/license (Commercial License) --><path d="M340.47 466.36c-1.45 0-6.89.46-9.18.46-116.25 0-210.82-94.57-210.82-210.82S215.04 45.18 331.29 45.18c2.32 0 7.7.46 9.18.46 7.13 0 13.33-5.03 14.75-12.07 1.46-7.25-2.55-14.49-9.47-17.09C316.58 5.54 286.39 0 256 0 114.84 0 0 114.84 0 256s114.84 256 256 256c30.23 0 60.28-5.49 89.32-16.32 5.96-2.02 10.28-7.64 10.28-14.26 0-8.09-6.39-15.06-15.13-15.06zM48 256c0-70.16 34.92-132.33 88.3-170.02-39.73 45.51-63.83 105-63.83 170.02 0 65.02 24.1 124.51 63.83 170.02C82.93 388.33 48 326.16 48 256zm455.46-42.14l-76.38-11.1-34.16-69.21c-1.83-3.7-5.38-5.55-8.93-5.55s-7.1 1.85-8.93 5.55l-34.16 69.21-76.38 11.1c-8.17 1.18-11.43 11.22-5.52 16.99l55.27 53.87-13.05 76.07c-1.11 6.44 4.01 11.66 9.81 11.66 1.53 0 3.11-.36 4.64-1.17L384 335.37l68.31 35.91c1.53.8 3.11 1.17 4.64 1.17 5.8 0 10.92-5.23 9.81-11.66l-13.05-76.07 55.27-53.87c5.91-5.77 2.65-15.81-5.52-16.99zm-83.25 36.48l-18.07 17.61 4.27 24.87.02.1-.09-.05L384 281.14l-22.34 11.74-.09.04.02-.1 4.27-24.87-18.07-17.61-.07-.07.1-.01 24.97-3.63L383.96 224l.04-.09.04.09 11.17 22.63 24.97 3.63.1.01-.07.07z"/></svg>
